X:1
T:Geduld, die Soll’n Wir Haben, 76.76 D
T:Geduld, die Soll’n Wir Haben, 76.76 D
T:Geistliche Lieder (Frankfurt, German
T:Public Domain Courtesy of the Cyber Hymnal™
C:Geistliche Lieder (Frankfurt, German
Z:Public Domain
Z:Courtesy of the Cyber Hymnal™
%%score ( 1 2 ) ( 3 4 )
L:1/8
Q:1/4=110
M:4/4
K:F
V:1 treble 
V:2 treble 
V:3 bass 
V:4 bass 
V:1
 [Fc]2 | [FA]2 [Fc]2 [Fd]2 [Ec]2 | [DB]4 [DA]2 [EA]2 | [DG]2 [DF]2 [CF]2 [CE]2 | [CF]6 [Fc]2 | %5
 [FA]2 [Fc]2 [Fd]2 [Ec]2 | [DB]4 [DA]2 [EA]2 | [DG]2 [DF]2 [CF]2 [CE]2 | [CF]6 [DF]2 | %9
 [EG]2 [FA]2 [FB]2 [GB]2 | A4 G2 [EG]2 | [FA]2 [Gc]2 [Fc]2 [F=B]2 | [Ec]6 [Fc]2 | %13
 [Fd]2 [Ec]2 [DB]2 [DB]2 | [DA]4 [DG]2 [FA]2 | [EG]2 [DF]2 [DF]2 [CE]2 | [CF]6 |] %17
V:2
 x2 | x8 | x8 | x8 | x8 | x8 | x8 | x8 | x8 | x8 | (G2 ^F2) G2 x2 | x8 | x8 | x8 | x8 | x8 | x6 |] %17
V:3
 [F,A,]2 | [F,C]2 [A,,C]2 [B,,B,]2 [C,G,]2 | [G,,G,]4 [D,^F,]2 [A,,C]2 | %3
 [B,,B,]2 [D,A,]2 [C,A,]2 [C,G,]2 | [F,A,]6 [F,A,]2 | [F,C]2 [A,,C]2 [B,,B,]2 [C,G,]2 | %6
 [G,,G,]4 [D,^F,]2 [A,,C]2 | [B,,B,]2 [D,A,]2 [C,A,]2 [C,G,]2 | [F,A,]6 [D,A,]2 | %9
 [C,C]2 [F,C]2 [B,,D]2 [G,,D]2 | [D,D]4 [G,,=B,]2 [C,C]2 | [F,C]2 [E,C]2 [D,A,]2 [D,G,]2 | %12
 [C,G,]6 [F,A,]2 | [B,,B,]2 [C,G,]2 [G,,G,]2 [A,,G,]2 | (G,2 ^F,2) [G,,=B,]2 [^F,,C]2 | %15
 [C,C]2 [D,A,]2 [B,,B,]2 [C,G,]2 | [F,,A,]6 |] %17
V:4
 x2 | x8 | x8 | x8 | x8 | x8 | x8 | x8 | x8 | x8 | x8 | x8 | x8 | x8 | D,4 x4 | x8 | x6 |] %17

